components/icon/svg/24/av_stop.svg

<?xml version="1.0" encoding="UTF-8"?>
<svg width="24px" height="24px" viewBox="0 0 24 24" version="1.1" xmlns="http://www.w3.org/2000/svg" xmlns:xlink="http://www.w3.org/1999/xlink">
    <!-- Generator: Sketch 64 (93537) - https://sketch.com -->
    <title>ic-db_av_stop_24</title>
    <desc>Created with Sketch.</desc>
    <g id="Symbols:Icon" stroke="none" stroke-width="1" fill="none" fill-rule="evenodd">
        <g id="24dp-Icon/AV/Stop" fill="#282D37">
            <path d="M15,6 C16.6562,6 18,7.3438 18,9 L18,15 C18,16.6562 16.6562,18 15,18 L9,18 C7.3438,18 6,16.6562 6,15 L6,9 C6,7.3438 7.3438,6 9,6 L15,6 Z M15,8 L9,8 C8.4375,8 8,8.4375 8,9 L8,15 C8,15.5625 8.4375,16 9,16 L15,16 C15.5625,16 16,15.5625 16,15 L16,9 C16,8.4375 15.5625,8 15,8 Z" id="🎨-Color"></path>
        </g>
    </g>
</svg>

<svg width="24" height="24" xmlns="http://www.w3.org/2000/svg"><path d="M15 6a3 3 0 013 3v6a3 3 0 01-3 3H9a3 3 0 01-3-3V9a3 3 0 013-3h6zm0 2H9c-.563 0-1 .438-1 1v6c0 .563.438 1 1 1h6c.563 0 1-.438 1-1V9c0-.563-.438-1-1-1z" fill="#282D37" fill-rule="evenodd"/></svg>
